bernoullicharts/exp_-x_alg_2__mean.svg

<?xml version="1.0" encoding="utf-8" standalone="no"?>
<!DOCTYPE svg PUBLIC "-//W3C//DTD SVG 1.1//EN"
  "http://www.w3.org/Graphics/SVG/1.1/DTD/svg11.dtd">
<!-- Created with matplotlib (https://matplotlib.org/) -->
<svg height="345.6pt" version="1.1" viewBox="0 0 460.8 345.6" width="460.8pt" xmlns="http://www.w3.org/2000/svg" xmlns:xlink="http://www.w3.org/1999/xlink">
 <defs>
  <style type="text/css">
*{stroke-linecap:butt;stroke-linejoin:round;}
  </style>
 </defs>
 <g id="figure_1">
  <g id="patch_1">
   <path d="M 0 345.6 
L 460.8 345.6 
L 460.8 0 
L 0 0 
z
" style="fill:#ffffff;"/>
  </g>
  <g id="axes_1">
   <g id="patch_2">
    <path d="M 57.6 307.584 
L 414.72 307.584 
L 414.72 41.472 
L 57.6 41.472 
z
" style="fill:#ffffff;"/>
   </g>
   <g id="matplotlib.axis_1">
    <g id="xtick_1">
     <g id="line2d_1">
      <defs>
       <path d="M 0 0 
L 0 3.5 
" id="m5d1e128ef9" style="stroke:#000000;stroke-width:0.8;"/>
      </defs>
      <g>
       <use style="stroke:#000000;stroke-width:0.8;" x="73.800255" xlink:href="#m5d1e128ef9" y="307.584"/>
      </g>
     </g>
     <g id="text_1">
      <text style="font-family:DejaVu Sans;font-size:10px;font-style:normal;font-weight:normal;text-anchor:middle;" transform="rotate(-0, 73.800255, 322.182437)" x="73.800255" y="322.182437">0.0</text>
     </g>
    </g>
    <g id="xtick_2">
     <g id="line2d_2">
      <g>
       <use style="stroke:#000000;stroke-width:0.8;" x="138.744153" xlink:href="#m5d1e128ef9" y="307.584"/>
      </g>
     </g>
     <g id="text_2">
      <text style="font-family:DejaVu Sans;font-size:10px;font-style:normal;font-weight:normal;text-anchor:middle;" transform="rotate(-0, 138.744153, 322.182437)" x="138.744153" y="322.182437">0.2</text>
     </g>
    </g>
    <g id="xtick_3">
     <g id="line2d_3">
      <g>
       <use style="stroke:#000000;stroke-width:0.8;" x="203.688051" xlink:href="#m5d1e128ef9" y="307.584"/>
      </g>
     </g>
     <g id="text_3">
      <text style="font-family:DejaVu Sans;font-size:10px;font-style:normal;font-weight:normal;text-anchor:middle;" transform="rotate(-0, 203.688051, 322.182437)" x="203.688051" y="322.182437">0.4</text>
     </g>
    </g>
    <g id="xtick_4">
     <g id="line2d_4">
      <g>
       <use style="stroke:#000000;stroke-width:0.8;" x="268.631949" xlink:href="#m5d1e128ef9" y="307.584"/>
      </g>
     </g>
     <g id="text_4">
      <text style="font-family:DejaVu Sans;font-size:10px;font-style:normal;font-weight:normal;text-anchor:middle;" transform="rotate(-0, 268.631949, 322.182437)" x="268.631949" y="322.182437">0.6</text>
     </g>
    </g>
    <g id="xtick_5">
     <g id="line2d_5">
      <g>
       <use style="stroke:#000000;stroke-width:0.8;" x="333.575847" xlink:href="#m5d1e128ef9" y="307.584"/>
      </g>
     </g>
     <g id="text_5">
      <text style="font-family:DejaVu Sans;font-size:10px;font-style:normal;font-weight:normal;text-anchor:middle;" transform="rotate(-0, 333.575847, 322.182437)" x="333.575847" y="322.182437">0.8</text>
     </g>
    </g>
    <g id="xtick_6">
     <g id="line2d_6">
      <g>
       <use style="stroke:#000000;stroke-width:0.8;" x="398.519745" xlink:href="#m5d1e128ef9" y="307.584"/>
      </g>
     </g>
     <g id="text_6">
      <text style="font-family:DejaVu Sans;font-size:10px;font-style:normal;font-weight:normal;text-anchor:middle;" transform="rotate(-0, 398.519745, 322.182437)" x="398.519745" y="322.182437">1.0</text>
     </g>
    </g>
    <g id="text_7">
     <text style="font-family:DejaVu Sans;font-size:10px;font-style:normal;font-weight:normal;text-anchor:middle;" transform="rotate(-0, 236.16, 335.860562)" x="236.16" y="335.860562">Input Coin's Heads Probability (λ)</text>
    </g>
   </g>
   <g id="matplotlib.axis_2">
    <g id="ytick_1">
     <g id="line2d_7">
      <defs>
       <path d="M 0 0 
L -3.5 0 
" id="m6d675f7029" style="stroke:#000000;stroke-width:0.8;"/>
      </defs>
      <g>
       <use style="stroke:#000000;stroke-width:0.8;" x="57.6" xlink:href="#m6d675f7029" y="282.514372"/>
      </g>
     </g>
     <g id="text_8">
      <text style="font-family:DejaVu Sans;font-size:10px;font-style:normal;font-weight:normal;text-anchor:end;" transform="rotate(-0, 50.6, 286.313591)" x="50.6" y="286.313591">0.4</text>
     </g>
    </g>
    <g id="ytick_2">
     <g id="line2d_8">
      <g>
       <use style="stroke:#000000;stroke-width:0.8;" x="57.6" xlink:href="#m6d675f7029" y="244.356644"/>
      </g>
     </g>
     <g id="text_9">
      <text style="font-family:DejaVu Sans;font-size:10px;font-style:normal;font-weight:normal;text-anchor:end;" transform="rotate(-0, 50.6, 248.155862)" x="50.6" y="248.155862">0.5</text>
     </g>
    </g>
    <g id="ytick_3">
     <g id="line2d_9">
      <g>
       <use style="stroke:#000000;stroke-width:0.8;" x="57.6" xlink:href="#m6d675f7029" y="206.198915"/>
      </g>
     </g>
     <g id="text_10">
      <text style="font-family:DejaVu Sans;font-size:10px;font-style:normal;font-weight:normal;text-anchor:end;" transform="rotate(-0, 50.6, 209.998134)" x="50.6" y="209.998134">0.6</text>
     </g>
    </g>
    <g id="ytick_4">
     <g id="line2d_10">
      <g>
       <use style="stroke:#000000;stroke-width:0.8;" x="57.6" xlink:href="#m6d675f7029" y="168.041186"/>
      </g>
     </g>
     <g id="text_11">
      <text style="font-family:DejaVu Sans;font-size:10px;font-style:normal;font-weight:normal;text-anchor:end;" transform="rotate(-0, 50.6, 171.840405)" x="50.6" y="171.840405">0.7</text>
     </g>
    </g>
    <g id="ytick_5">
     <g id="line2d_11">
      <g>
       <use style="stroke:#000000;stroke-width:0.8;" x="57.6" xlink:href="#m6d675f7029" y="129.883457"/>
      </g>
     </g>
     <g id="text_12">
      <text style="font-family:DejaVu Sans;font-size:10px;font-style:normal;font-weight:normal;text-anchor:end;" transform="rotate(-0, 50.6, 133.682676)" x="50.6" y="133.682676">0.8</text>
     </g>
    </g>
    <g id="ytick_6">
     <g id="line2d_12">
      <g>
       <use style="stroke:#000000;stroke-width:0.8;" x="57.6" xlink:href="#m6d675f7029" y="91.725729"/>
      </g>
     </g>
     <g id="text_13">
      <text style="font-family:DejaVu Sans;font-size:10px;font-style:normal;font-weight:normal;text-anchor:end;" transform="rotate(-0, 50.6, 95.524947)" x="50.6" y="95.524947">0.9</text>
     </g>
    </g>
    <g id="ytick_7">
     <g id="line2d_13">
      <g>
       <use style="stroke:#000000;stroke-width:0.8;" x="57.6" xlink:href="#m6d675f7029" y="53.568"/>
      </g>
     </g>
     <g id="text_14">
      <text style="font-family:DejaVu Sans;font-size:10px;font-style:normal;font-weight:normal;text-anchor:end;" transform="rotate(-0, 50.6, 57.367219)" x="50.6" y="57.367219">1.0</text>
     </g>
    </g>
    <g id="text_15">
     <text style="font-family:DejaVu Sans;font-size:10px;font-style:normal;font-weight:normal;text-anchor:middle;" transform="rotate(-90, 28.617187, 174.528)" x="28.617187" y="174.528">Simulated Mean / Function Value</text>
    </g>
   </g>
   <g id="line2d_14">
    <path clip-path="url(#p1ce12ff1e8)" d="M 73.832727 53.606156 
L 77.112066 57.439924 
L 80.391405 61.235171 
L 83.670744 64.992282 
L 86.950083 68.711641 
L 90.229421 72.393627 
L 93.50876 76.038616 
L 96.788099 79.64698 
L 100.067438 83.219086 
L 103.346777 86.755299 
L 106.626116 90.255979 
L 109.905455 93.721484 
L 113.184793 97.152168 
L 116.464132 100.548379 
L 119.743471 103.910464 
L 123.02281 107.238767 
L 126.302149 110.533626 
L 129.581488 113.795378 
L 132.860826 117.024355 
L 136.140165 120.220887 
L 139.419504 123.3853 
L 142.698843 126.517916 
L 145.978182 129.619055 
L 149.257521 132.689034 
L 152.53686 135.728164 
L 155.816198 138.736758 
L 159.095537 141.71512 
L 162.374876 144.663555 
L 165.654215 147.582364 
L 168.933554 150.471844 
L 172.212893 153.33229 
L 175.492231 156.163994 
L 178.77157 158.967244 
L 182.050909 161.742327 
L 185.330248 164.489525 
L 188.609587 167.20912 
L 191.888926 169.901387 
L 195.168264 172.566602 
L 198.447603 175.205036 
L 201.726942 177.816959 
L 205.006281 180.402637 
L 208.28562 182.962333 
L 211.564959 185.496309 
L 214.844298 188.004824 
L 218.123636 190.488132 
L 221.402975 192.946488 
L 224.682314 195.380142 
L 227.961653 197.789342 
L 231.240992 200.174334 
L 234.520331 202.535361 
L 237.799669 204.872664 
L 241.079008 207.186482 
L 244.358347 209.47705 
L 247.637686 211.744602 
L 250.917025 213.989369 
L 254.196364 216.211581 
L 257.475702 218.411463 
L 260.755041 220.589241 
L 264.03438 222.745135 
L 267.313719 224.879367 
L 270.593058 226.992154 
L 273.872397 229.083712 
L 277.151736 231.154253 
L 280.431074 233.203989 
L 283.710413 235.233128 
L 286.989752 237.241879 
L 290.269091 239.230445 
L 293.54843 241.19903 
L 296.827769 243.147834 
L 300.107107 245.077057 
L 303.386446 246.986894 
L 306.665785 248.877541 
L 309.945124 250.74919 
L 313.224463 252.602033 
L 316.503802 254.436258 
L 319.78314 256.252052 
L 323.062479 258.049601 
L 326.341818 259.829088 
L 329.621157 261.590694 
L 332.900496 263.3346 
L 336.179835 265.060982 
L 339.459174 266.770017 
L 342.738512 268.46188 
L 346.017851 270.136743 
L 349.29719 271.794776 
L 352.576529 273.436149 
L 355.855868 275.06103 
L 359.135207 276.669583 
L 362.414545 278.261973 
L 365.693884 279.838363 
L 368.973223 281.398912 
L 372.252562 282.943782 
L 375.531901 284.473128 
L 378.81124 285.987107 
L 382.090579 287.485873 
L 385.369917 288.969579 
L 388.649256 290.438377 
L 391.928595 291.892416 
L 395.207934 293.331845 
L 398.487273 294.75681 
" style="fill:none;stroke:#1f77b4;stroke-linecap:square;stroke-width:1.5;"/>
   </g>
   <g id="line2d_15">
    <path clip-path="url(#p1ce12ff1e8)" d="M 73.832727 53.568 
L 77.112066 58.910082 
L 80.391405 61.199546 
L 83.670744 65.015319 
L 86.950083 69.594246 
L 90.229421 64.252164 
L 93.50876 68.067937 
L 96.788099 90.962574 
L 100.067438 79.515256 
L 103.346777 87.146801 
L 106.626116 94.015192 
L 109.905455 90.19942 
L 113.184793 108.515129 
L 116.464132 100.120429 
L 119.743471 103.936202 
L 123.02281 102.409893 
L 126.302149 106.225666 
L 129.581488 113.094057 
L 132.860826 117.672984 
L 136.140165 119.199293 
L 139.419504 115.383521 
L 142.698843 126.067685 
L 145.978182 126.830839 
L 149.257521 134.462385 
L 152.53686 138.278158 
L 155.816198 131.409767 
L 159.095537 124.541375 
L 162.374876 148.962322 
L 165.654215 148.962322 
L 168.933554 129.120303 
L 172.212893 162.699104 
L 175.492231 152.778095 
L 178.77157 155.067558 
L 182.050909 171.856959 
L 185.330248 172.620114 
L 188.609587 162.699104 
L 191.888926 158.883331 
L 195.168264 178.72535 
L 198.447603 181.777968 
L 201.726942 174.146423 
L 205.006281 176.435886 
L 208.28562 175.672732 
L 211.564959 171.856959 
L 214.844298 200.093678 
L 218.123636 184.067432 
L 221.402975 200.093678 
L 224.682314 183.304278 
L 227.961653 193.225287 
L 231.240992 199.330524 
L 234.520331 183.304278 
L 237.799669 203.146297 
L 241.079008 203.909451 
L 244.358347 221.462006 
L 247.637686 214.593615 
L 250.917025 202.383142 
L 254.196364 210.014688 
L 257.475702 206.962069 
L 260.755041 220.698852 
L 264.03438 212.304151 
L 267.313719 224.514625 
L 270.593058 226.804088 
L 273.872397 222.225161 
L 277.151736 216.883079 
L 280.431074 221.462006 
L 283.710413 242.06718 
L 286.989752 243.593489 
L 290.269091 254.277653 
L 293.54843 230.619861 
L 296.827769 250.46188 
L 300.107107 257.330271 
L 303.386446 232.14617 
L 306.665785 239.777716 
L 309.945124 246.646107 
L 313.224463 268.014435 
L 316.503802 245.119798 
L 319.78314 273.356517 
L 323.062479 268.014435 
L 326.341818 258.093426 
L 329.621157 264.198662 
L 332.900496 257.330271 
L 336.179835 273.356517 
L 339.459174 268.014435 
L 342.738512 273.356517 
L 346.017851 261.146044 
L 349.29719 277.935445 
L 352.576529 280.988063 
L 355.855868 278.698599 
L 359.135207 281.751218 
L 362.414545 278.698599 
L 365.693884 262.672353 
L 368.973223 280.224909 
L 372.252562 278.698599 
L 375.531901 292.435382 
L 378.81124 295.488 
L 382.090579 277.935445 
L 385.369917 287.0933 
L 388.649256 283.277527 
L 391.928595 287.856454 
L 395.207934 286.330145 
" style="fill:none;stroke:#ff7f0e;stroke-linecap:square;stroke-width:1.5;"/>
   </g>
   <g id="patch_3">
    <path d="M 57.6 307.584 
L 57.6 41.472 
" style="fill:none;stroke:#000000;stroke-linecap:square;stroke-linejoin:miter;stroke-width:0.8;"/>
   </g>
   <g id="patch_4">
    <path d="M 414.72 307.584 
L 414.72 41.472 
" style="fill:none;stroke:#000000;stroke-linecap:square;stroke-linejoin:miter;stroke-width:0.8;"/>
   </g>
   <g id="patch_5">
    <path d="M 57.6 307.584 
L 414.72 307.584 
" style="fill:none;stroke:#000000;stroke-linecap:square;stroke-linejoin:miter;stroke-width:0.8;"/>
   </g>
   <g id="patch_6">
    <path d="M 57.6 41.472 
L 414.72 41.472 
" style="fill:none;stroke:#000000;stroke-linecap:square;stroke-linejoin:miter;stroke-width:0.8;"/>
   </g>
   <g id="text_16">
    <text style="font-family:DejaVu Sans;font-size:12px;font-style:normal;font-weight:normal;" transform="translate(99.085313 22.034625)">Simulated Mean for exp(-x) (Alg. 2) Algorithm</text>
    <text style="font-family:DejaVu Sans;font-size:12px;font-style:normal;font-weight:normal;" transform="translate(132.609375 35.472)">(Wasserstein Distances in Legend)</text>
   </g>
   <g id="legend_1">
    <g id="patch_7">
     <path d="M 229.47 78.82825 
L 407.72 78.82825 
Q 409.72 78.82825 409.72 76.82825 
L 409.72 48.472 
Q 409.72 46.472 407.72 46.472 
L 229.47 46.472 
Q 227.47 46.472 227.47 48.472 
L 227.47 76.82825 
Q 227.47 78.82825 229.47 78.82825 
z
" style="fill:#ffffff;opacity:0.8;stroke:#cccccc;stroke-linejoin:miter;"/>
    </g>
    <g id="line2d_16">
     <path d="M 231.47 54.570437 
L 251.47 54.570437 
" style="fill:none;stroke:#1f77b4;stroke-linecap:square;stroke-width:1.5;"/>
    </g>
    <g id="line2d_17"/>
    <g id="text_17">
     <text style="font-family:DejaVu Sans;font-size:10px;font-style:normal;font-weight:normal;text-anchor:start;" transform="rotate(-0, 259.47, 58.070437)" x="259.47" y="58.070437">exp(-x)</text>
    </g>
    <g id="line2d_18">
     <path d="M 231.47 69.248562 
L 251.47 69.248562 
" style="fill:none;stroke:#ff7f0e;stroke-linecap:square;stroke-width:1.5;"/>
    </g>
    <g id="line2d_19"/>
    <g id="text_18">
     <text style="font-family:DejaVu Sans;font-size:10px;font-style:normal;font-weight:normal;text-anchor:start;" transform="rotate(-0, 259.47, 72.748562)" x="259.47" y="72.748562">Simul. Mean (WD=0.007464)</text>
    </g>
   </g>
  </g>
 </g>
 <defs>
  <clipPath id="p1ce12ff1e8">
   <rect height="266.112" width="357.12" x="57.6" y="41.472"/>
  </clipPath>
 </defs>
</svg>

<svg height="460.8" viewBox="0 0 460.8 345.6" width="614.4" xmlns="http://www.w3.org/2000/svg" xmlns:xlink="http://www.w3.org/1999/xlink"><defs><style>*{stroke-linecap:butt;stroke-linejoin:round}</style></defs><g id="figure_1"><path d="M0 345.6h460.8V0H0z" fill="#fff" id="patch_1"/><g id="axes_1"><path d="M57.6 307.584h357.12V41.472H57.6z" fill="#fff" id="patch_2"/><g id="matplotlib.axis_1"><g id="xtick_1"><g id="line2d_1"><defs><path d="M0 0v3.5" id="m5d1e128ef9" stroke="#000" stroke-width=".8"/></defs><use x="73.8" xlink:href="#m5d1e128ef9" y="307.584" stroke="#000" stroke-width=".8"/></g><text x="73.8" y="322.182" font-family="DejaVu Sans" font-size="10" font-weight="400" text-anchor="middle" id="text_1">0.0</text></g><g id="xtick_2"><use x="138.744" xlink:href="#m5d1e128ef9" y="307.584" stroke="#000" stroke-width=".8" id="line2d_2"/><text x="138.744" y="322.182" font-family="DejaVu Sans" font-size="10" font-weight="400" text-anchor="middle" id="text_2">0.2</text></g><g id="xtick_3"><use x="203.688" xlink:href="#m5d1e128ef9" y="307.584" stroke="#000" stroke-width=".8" id="line2d_3"/><text x="203.688" y="322.182" font-family="DejaVu Sans" font-size="10" font-weight="400" text-anchor="middle" id="text_3">0.4</text></g><g id="xtick_4"><use x="268.632" xlink:href="#m5d1e128ef9" y="307.584" stroke="#000" stroke-width=".8" id="line2d_4"/><text x="268.632" y="322.182" font-family="DejaVu Sans" font-size="10" font-weight="400" text-anchor="middle" id="text_4">0.6</text></g><g id="xtick_5"><use x="333.576" xlink:href="#m5d1e128ef9" y="307.584" stroke="#000" stroke-width=".8" id="line2d_5"/><text x="333.576" y="322.182" font-family="DejaVu Sans" font-size="10" font-weight="400" text-anchor="middle" id="text_5">0.8</text></g><g id="xtick_6"><use x="398.52" xlink:href="#m5d1e128ef9" y="307.584" stroke="#000" stroke-width=".8" id="line2d_6"/><text x="398.52" y="322.182" font-family="DejaVu Sans" font-size="10" font-weight="400" text-anchor="middle" id="text_6">1.0</text></g><text x="236.16" y="335.861" font-family="DejaVu Sans" font-size="10" font-weight="400" text-anchor="middle" id="text_7">Input Coin&apos;s Heads Probability (λ)</text></g><g id="matplotlib.axis_2"><g id="ytick_1"><g id="line2d_7"><defs><path d="M0 0h-3.5" id="m6d675f7029" stroke="#000" stroke-width=".8"/></defs><use x="57.6" xlink:href="#m6d675f7029" y="282.514" stroke="#000" stroke-width=".8"/></g><text x="50.6" y="286.314" font-family="DejaVu Sans" font-size="10" font-weight="400" text-anchor="end" id="text_8">0.4</text></g><g id="ytick_2"><use x="57.6" xlink:href="#m6d675f7029" y="244.357" stroke="#000" stroke-width=".8" id="line2d_8"/><text x="50.6" y="248.156" font-family="DejaVu Sans" font-size="10" font-weight="400" text-anchor="end" id="text_9">0.5</text></g><g id="ytick_3"><use x="57.6" xlink:href="#m6d675f7029" y="206.199" stroke="#000" stroke-width=".8" id="line2d_9"/><text x="50.6" y="209.998" font-family="DejaVu Sans" font-size="10" font-weight="400" text-anchor="end" id="text_10">0.6</text></g><g id="ytick_4"><use x="57.6" xlink:href="#m6d675f7029" y="168.041" stroke="#000" stroke-width=".8" id="line2d_10"/><text x="50.6" y="171.84" font-family="DejaVu Sans" font-size="10" font-weight="400" text-anchor="end" id="text_11">0.7</text></g><g id="ytick_5"><use x="57.6" xlink:href="#m6d675f7029" y="129.883" stroke="#000" stroke-width=".8" id="line2d_11"/><text x="50.6" y="133.683" font-family="DejaVu Sans" font-size="10" font-weight="400" text-anchor="end" id="text_12">0.8</text></g><g id="ytick_6"><use x="57.6" xlink:href="#m6d675f7029" y="91.726" stroke="#000" stroke-width=".8" id="line2d_12"/><text x="50.6" y="95.525" font-family="DejaVu Sans" font-size="10" font-weight="400" text-anchor="end" id="text_13">0.9</text></g><g id="ytick_7"><use x="57.6" xlink:href="#m6d675f7029" y="53.568" stroke="#000" stroke-width=".8" id="line2d_13"/><text x="50.6" y="57.367" font-family="DejaVu Sans" font-size="10" font-weight="400" text-anchor="end" id="text_14">1.0</text></g><text transform="rotate(-90 28.617 174.528)" x="28.617" y="174.528" font-family="DejaVu Sans" font-size="10" font-weight="400" text-anchor="middle" id="text_15">Simulated Mean / Function Value</text></g><path clip-path="url(#p1ce12ff1e8)" d="M73.833 53.606l3.28 3.834 3.278 3.795 3.28 3.757 3.28 3.72 3.278 3.682 3.28 3.645 3.28 3.608 3.278 3.572 3.28 3.536 3.28 3.501 3.278 3.465 3.28 3.431 3.28 3.396 3.278 3.362 3.28 3.329 3.28 3.295 3.278 3.261 3.28 3.23 3.28 3.196 3.279 3.164 3.279 3.133 3.28 3.101 3.279 3.07 3.279 3.04 3.28 3.008 3.279 2.978 3.279 2.949 3.28 2.918 3.279 2.89 3.279 2.86 3.28 2.832 3.279 2.803 3.279 2.775 3.28 2.748 3.279 2.72 3.279 2.691 3.28 2.666 3.279 2.638 3.279 2.612 3.28 2.586 3.279 2.56 3.279 2.533 3.28 2.509 3.279 2.483 3.279 2.458 3.28 2.434 3.279 2.41 3.279 2.384 3.28 2.361 3.279 2.338 3.279 2.313 3.28 2.291 3.279 2.268 3.279 2.244 3.28 2.223 3.279 2.2 3.279 2.177 3.28 2.156 3.279 2.134 3.28 2.113 3.278 2.092 3.28 2.07 3.28 2.05 3.278 2.03 3.28 2.008 3.28 1.988 3.278 1.969 3.28 1.949 3.28 1.93 3.278 1.909 3.28 1.89 3.28 1.872 3.278 1.853 3.28 1.834 3.28 1.816 3.278 1.798 3.28 1.78 3.28 1.76 3.278 1.745 3.28 1.726 3.28 1.709 3.279 1.692 3.279 1.675 3.28 1.658 3.279 1.641 3.279 1.625 3.28 1.609 3.279 1.592 3.279 1.576 3.28 1.56 3.279 1.546 3.279 1.53 3.28 1.513 3.279 1.499 3.279 1.484 3.28 1.468 3.279 1.454 3.279 1.44 3.28 1.425" fill="none" stroke="#1f77b4" stroke-linecap="square" stroke-width="1.5" id="line2d_14"/><path clip-path="url(#p1ce12ff1e8)" d="M73.833 53.568l3.28 5.342 3.278 2.29 3.28 3.815 3.28 4.58 3.278-5.343 3.28 3.816 3.28 22.895 3.278-11.448 3.28 7.632 3.28 6.868 3.278-3.816 3.28 18.316 3.28-8.395 3.278 3.816 3.28-1.526 3.28 3.816 3.278 6.868 3.28 4.579 3.28 1.526 3.279-3.815 3.279 10.684 3.28.763 3.279 7.631 3.279 3.816 3.28-6.868 3.279-6.869 3.279 24.421h3.28l3.279-19.842 3.279 33.58 3.28-9.922 3.279 2.29 3.279 16.789 3.28.763 3.279-9.92 3.279-3.817 3.28 19.842 3.279 3.053 3.279-7.632 3.28 2.29 3.279-.763 3.279-3.816 3.28 28.237 3.279-16.027 3.279 16.027 3.28-16.79 3.279 9.921 3.279 6.106 3.28-16.027 3.279 19.842 3.279.763 3.28 17.553 3.279-6.868 3.279-12.21 3.28 7.63 3.279-3.052 3.279 13.737 3.28-8.395 3.279 12.21 3.28 2.29 3.278-4.579 3.28-5.342 3.28 4.579 3.278 20.605 3.28 1.526 3.28 10.685 3.278-23.658 3.28 19.842 3.28 6.868 3.278-25.184 3.28 7.632 3.28 6.868 3.278 21.368 3.28-22.894 3.28 28.237 3.278-5.343 3.28-9.92 3.28 6.105 3.278-6.869 3.28 16.027 3.28-5.343 3.279 5.343 3.279-12.211 3.28 16.79 3.279 3.052 3.279-2.29 3.28 3.053 3.279-3.052 3.279-16.027 3.28 17.553 3.279-1.526 3.279 13.736 3.28 3.053 3.279-17.553 3.279 9.158 3.28-3.815 3.279 4.578 3.279-1.526" fill="none" stroke="#ff7f0e" stroke-linecap="square" stroke-width="1.5" id="line2d_15"/><path d="M57.6 307.584V41.472" fill="none" stroke="#000" stroke-linecap="square" stroke-width=".8" id="patch_3"/><path d="M414.72 307.584V41.472" fill="none" stroke="#000" stroke-linecap="square" stroke-width=".8" id="patch_4"/><path d="M57.6 307.584h357.12" fill="none" stroke="#000" stroke-linecap="square" stroke-width=".8" id="patch_5"/><path d="M57.6 41.472h357.12" fill="none" stroke="#000" stroke-linecap="square" stroke-width=".8" id="patch_6"/><g id="text_16" font-family="DejaVu Sans" font-size="12" font-weight="400"><text transform="translate(99.085 22.035)">Simulated Mean for exp(-x) (Alg. 2) Algorithm</text><text transform="translate(132.61 35.472)">(Wasserstein Distances in Legend)</text></g><g id="legend_1"><path d="M229.47 78.828h178.25q2 0 2-2V48.472q0-2-2-2H229.47q-2 0-2 2v28.356q0 2 2 2z" fill="#fff" opacity=".8" stroke="#ccc" id="patch_7"/><path d="M231.47 54.57h20" fill="none" stroke="#1f77b4" stroke-linecap="square" stroke-width="1.5" id="line2d_16"/><text x="259.47" y="58.07" font-family="DejaVu Sans" font-size="10" font-weight="400" id="text_17">exp(-x)</text><path d="M231.47 69.249h20" fill="none" stroke="#ff7f0e" stroke-linecap="square" stroke-width="1.5" id="line2d_18"/><text x="259.47" y="72.749" font-family="DejaVu Sans" font-size="10" font-weight="400" id="text_18">Simul. Mean (WD=0.007464)</text></g></g></g><defs><clipPath id="p1ce12ff1e8"><path d="M57.6 41.472h357.12v266.112H57.6z"/></clipPath></defs></svg>
